X: 7735
T: Colonel O'Hara's
R: reel
M: 4/4
K: Gmajor
g2d2 gfed|e2dcc2 ag|gfed d2 dc|cBAG G2DG|
BABG cBcA|dcdB edeB|cBAG FAEA|D2D2D2 EF|
GFGE CDEC|AGAF DEFD|BABG EFGE|cBcA FGAF|
GABc d2 ef|g2 fg agfe|d2 Bc dcBA|G2g2G4||
D2G2 GFGA|GFGA G2D2|B2B2 Bc BA|GABc d2 cB|
c2g2 fg a2|gfed d'2d2|b2 gb c'bag|fgef d2 ef|
gfge cdec|agaf defd|babg efge|c'bc'a fgaf|
b2 g2 g2 g2|f2 d2 d2 Bd|gfed cBAB|G4 G4||

